X:1
T:Unknown set tune 
N:from the mouth organ playing of Sally Sloane
Z:Ian Hayden 2017
L:1/8
M:6/8
K:G
E[|D2E E2D|D2E E2D|D2B BGE|F3-F2A|
|A2B B2A|A2B B2A|A2B BGE|F3-F2E|
|D2B c2B|A3 E2A|D2G B2A|G3-G2E/F/|
|G2F A2G|d3 c3|GB2 B2A|G3-G3|]
